elementary-icon-theme/elementary/panel/24/ubuntuone-client-error.svg

<?xml version="1.0" encoding="UTF-8" standalone="no"?>
<!-- Created with Inkscape (http://www.inkscape.org/) -->

<svg
   xmlns:dc="http://purl.org/dc/elements/1.1/"
   xmlns:cc="http://creativecommons.org/ns#"
   xmlns:rdf="http://www.w3.org/1999/02/22-rdf-syntax-ns#"
   xmlns:svg="http://www.w3.org/2000/svg"
   xmlns="http://www.w3.org/2000/svg"
   xmlns:xlink="http://www.w3.org/1999/xlink"
   xmlns:sodipodi="http://sodipodi.sourceforge.net/DTD/sodipodi-0.dtd"
   xmlns:inkscape="http://www.inkscape.org/namespaces/inkscape"
   version="1.0"
   width="24"
   height="24"
   id="svg3204"
   inkscape:version="0.48.0 r9654"
   sodipodi:docname="ubuntuone-client-error.svg">
  <metadata
     id="metadata14">
    <rdf:RDF>
      <cc:Work
         rdf:about="">
        <dc:format>image/svg+xml</dc:format>
        <dc:type
           rdf:resource="http://purl.org/dc/dcmitype/StillImage" />
      </cc:Work>
    </rdf:RDF>
  </metadata>
  <sodipodi:namedview
     pagecolor="#ffffff"
     bordercolor="#666666"
     borderopacity="1"
     objecttolerance="10"
     gridtolerance="10"
     guidetolerance="10"
     inkscape:pageopacity="0"
     inkscape:pageshadow="2"
     inkscape:window-width="640"
     inkscape:window-height="480"
     id="namedview12"
     showgrid="false"
     inkscape:zoom="11.25"
     inkscape:cx="12"
     inkscape:cy="12"
     inkscape:window-x="0"
     inkscape:window-y="24"
     inkscape:window-maximized="0"
     inkscape:current-layer="svg3204" />
  <defs
     id="defs3206">
    <linearGradient
       id="linearGradient3187">
      <stop
         id="stop3189"
         style="stop-color:#a60000;stop-opacity:1"
         offset="0" />
      <stop
         id="stop3191"
         style="stop-color:#ff1313;stop-opacity:1"
         offset="1" />
    </linearGradient>
    <linearGradient
       x1="99.624245"
       y1="8.4432774"
       x2="99.624245"
       y2="34.187016"
       id="linearGradient2388"
       xlink:href="#linearGradient3187"
       gradientUnits="userSpaceOnUse"
       gradientTransform="matrix(0.4100229,0,0,0.5447147,-31.849506,0.4010842)" />
    <linearGradient
       inkscape:collect="always"
       xlink:href="#linearGradient3187"
       id="linearGradient2992"
       gradientUnits="userSpaceOnUse"
       gradientTransform="matrix(0.4100229,0,0,0.5447147,-31.849506,0.4010842)"
       x1="99.624245"
       y1="8.4432774"
       x2="99.624245"
       y2="34.187016" />
  </defs>
  <path
     inkscape:connector-curvature="0"
     style="opacity:0.7;fill:#ffffff;fill-opacity:1;fill-rule:nonzero;stroke:none;stroke-width:1;marker:none;visibility:visible;display:inline;overflow:visible;enable-background:accumulate"
     id="path2419"
     d="M 13.5,6 C 11.864056,5.9802753 10.382374,7.0788679 9.65625,8.5 8.813667,7.9692853 7.7258373,7.8413413 6.8125,8.28125 5.5197067,8.8113378 4.7073242,10.324679 5.09375,11.6875 3.1905777,12.834829 2.440967,15.458812 3.4375,17.4375 4.2039987,19.097728 6.0632985,20.137674 7.875,20 10.868381,19.9915 13.8509,19.9989 16.84375,19.96875 19.037377,19.851344 20.938678,17.913138 21,15.71875 21.133874,13.770946 19.823778,11.85806 17.96875,11.25 18.194315,8.892105 16.48395,6.3579782 14.0625,6.03125 13.87284,6.0044441 13.691545,5.999989 13.5,6 z M 12,8 c 0.554,0 1,0.446 1,1 l 0,5 c 0,0.554 -0.446,1 -1,1 -0.554,0 -1,-0.446 -1,-1 l 0,-5 c 0,-0.554 0.446,-1 1,-1 z m -0.25,8 0.5,0 c 0.4155,0 0.75,0.3345 0.75,0.75 l 0,0.5 C 13,17.6655 12.6655,18 12.25,18 l -0.5,0 C 11.3345,18 11,17.6655 11,17.25 l 0,-0.5 C 11,16.3345 11.3345,16 11.75,16 z" />
  <path
     inkscape:connector-curvature="0"
     style="opacity:0.8;fill:url(#linearGradient2992);fill-opacity:1;fill-rule:nonzero;stroke:none;stroke-width:1;marker:none;visibility:visible;display:inline;overflow:visible;enable-background:accumulate"
     id="rect3193"
     d="M 13.5,5 C 11.864056,4.9802754 10.382374,6.0788679 9.65625,7.5 8.813667,6.9692849 7.7258373,6.8413413 6.8125,7.28125 5.5197067,7.8113374 4.7073242,9.3246787 5.09375,10.6875 3.1905777,11.834829 2.440967,14.458812 3.4375,16.4375 4.2039987,18.097728 6.0632985,19.137674 7.875,19 10.868381,18.9915 13.8509,18.9989 16.84375,18.96875 19.037377,18.851344 20.938678,16.913138 21,14.71875 21.133874,12.770946 19.823778,10.85806 17.96875,10.25 18.194315,7.8921046 16.48395,5.3579782 14.0625,5.03125 13.87284,5.0044442 13.691545,4.999989 13.5,5 z M 12,8 c 0.554,0 1,0.446 1,1 l 0,5 c 0,0.554 -0.446,1 -1,1 -0.554,0 -1,-0.446 -1,-1 l 0,-5 c 0,-0.554 0.446,-1 1,-1 z m -0.25,8 0.5,0 c 0.4155,0 0.75,0.3345 0.75,0.75 l 0,0.5 C 13,17.6655 12.6655,18 12.25,18 l -0.5,0 C 11.3345,18 11,17.6655 11,17.25 l 0,-0.5 C 11,16.3345 11.3345,16 11.75,16 z" />
</svg>

<?xml version="1.0" encoding="UTF-8" standalone="no"?>
<!-- Created with Inkscape (http://www.inkscape.org/) -->
<svg
   xmlns:svg="http://www.w3.org/2000/svg"
   xmlns="http://www.w3.org/2000/svg"
   xmlns:xlink="http://www.w3.org/1999/xlink"
   version="1.0"
   width="24"
   height="24"
   id="svg3204">
  <defs
     id="defs3206">
    <linearGradient
       id="linearGradient3187">
      <stop
         id="stop3189"
         style="stop-color:#a60000;stop-opacity:1"
         offset="0" />
      <stop
         id="stop3191"
         style="stop-color:#ff1313;stop-opacity:1"
         offset="1" />
    </linearGradient>
    <linearGradient
       x1="99.624245"
       y1="8.4432774"
       x2="99.624245"
       y2="34.187016"
       id="linearGradient2388"
       xlink:href="#linearGradient3187"
       gradientUnits="userSpaceOnUse"
       gradientTransform="matrix(0.4100229,0,0,0.5447147,-31.849506,0.4010842)" />
  </defs>
  <g
     id="layer1">
    <path
       d="M 13.5,4 C 11.741332,3.9788029 10.309132,5.0438023 9.34375,6.375 C 8.4066637,6.0268378 7.3703488,5.9623712 6.40625,6.40625 C 6.3869173,6.4151508 6.3630007,6.3969811 6.34375,6.40625 C 4.8238391,7.062011 3.9169916,8.6372139 4.0625,10.28125 C 2.1110873,11.837944 1.3900532,14.609844 2.53125,16.875 C 3.4776726,18.924242 5.6284041,20.11143 7.84375,19.96875 L 7.84375,20 C 10.834681,19.991543 13.84166,19.998987 16.84375,19.96875 C 16.864953,19.959075 16.885786,19.948652 16.90625,19.9375 C 19.648634,19.790774 21.923211,17.496929 22,14.75 C 22.151207,12.55076 20.827053,10.555048 18.875,9.625 C 18.788507,6.9745082 16.965846,4.4372565 14.1875,4.0625 C 13.926546,4.0256303 13.706937,3.9999881 13.5,4 z M 12,8 C 12.554,8 13,8.446 13,9 L 13,14 C 13,14.554 12.554,15 12,15 C 11.446,15 11,14.554 11,14 L 11,9 C 11,8.446 11.446,8 12,8 z M 11.75,16 L 12.25,16 C 12.6655,16 13,16.3345 13,16.75 L 13,17.25 C 13,17.6655 12.6655,18 12.25,18 L 11.75,18 C 11.3345,18 11,17.6655 11,17.25 L 11,16.75 C 11,16.3345 11.3345,16 11.75,16 z"
       id="path3186"
       style="opacity:0.1;fill:#f50000;fill-opacity:1;fill-rule:nonzero;stroke:none;stroke-width:1;stroke-linecap:butt;stroke-linejoin:miter;marker:none;marker-start:none;marker-mid:none;marker-end:none;stroke-miterlimit:4;stroke-dasharray:none;stroke-dashoffset:0;stroke-opacity:1;visibility:visible;display:inline;overflow:visible;enable-background:accumulate" />
    <path
       d="M 13.5,6 C 11.864056,5.9802753 10.382374,7.0788679 9.65625,8.5 C 8.813667,7.9692853 7.7258373,7.8413413 6.8125,8.28125 C 5.5197067,8.8113378 4.7073242,10.324679 5.09375,11.6875 C 3.1905777,12.834829 2.440967,15.458812 3.4375,17.4375 C 4.2039987,19.097728 6.0632985,20.137674 7.875,20 C 10.868381,19.991533 13.8509,19.998904 16.84375,19.96875 C 19.037377,19.851344 20.938678,17.913138 21,15.71875 C 21.133874,13.770946 19.823778,11.85806 17.96875,11.25 C 18.194315,8.892105 16.48395,6.3579782 14.0625,6.03125 C 13.87284,6.0044441 13.691545,5.999989 13.5,6 z M 12,8 C 12.554,8 13,8.446 13,9 L 13,14 C 13,14.554 12.554,15 12,15 C 11.446,15 11,14.554 11,14 L 11,9 C 11,8.446 11.446,8 12,8 z M 11.75,16 L 12.25,16 C 12.6655,16 13,16.3345 13,16.75 L 13,17.25 C 13,17.6655 12.6655,18 12.25,18 L 11.75,18 C 11.3345,18 11,17.6655 11,17.25 L 11,16.75 C 11,16.3345 11.3345,16 11.75,16 z"
       id="path2419"
       style="opacity:0.7;fill:#ffffff;fill-opacity:1;fill-rule:nonzero;stroke:none;stroke-width:1;stroke-linecap:butt;stroke-linejoin:miter;marker:none;marker-start:none;marker-mid:none;marker-end:none;stroke-miterlimit:4;stroke-dasharray:none;stroke-dashoffset:0;stroke-opacity:1;visibility:visible;display:inline;overflow:visible;enable-background:accumulate" />
    <path
       d="M 13.5,5 C 11.864056,4.9802754 10.382374,6.0788679 9.65625,7.5 C 8.813667,6.9692849 7.7258373,6.8413413 6.8125,7.28125 C 5.5197067,7.8113374 4.7073242,9.3246787 5.09375,10.6875 C 3.1905777,11.834829 2.440967,14.458812 3.4375,16.4375 C 4.2039987,18.097728 6.0632985,19.137674 7.875,19 C 10.868381,18.991533 13.8509,18.998904 16.84375,18.96875 C 19.037377,18.851344 20.938678,16.913138 21,14.71875 C 21.133874,12.770946 19.823778,10.85806 17.96875,10.25 C 18.194315,7.8921046 16.48395,5.3579782 14.0625,5.03125 C 13.87284,5.0044442 13.691545,4.999989 13.5,5 z M 12,8 C 12.554,8 13,8.446 13,9 L 13,14 C 13,14.554 12.554,15 12,15 C 11.446,15 11,14.554 11,14 L 11,9 C 11,8.446 11.446,8 12,8 z M 11.75,16 L 12.25,16 C 12.6655,16 13,16.3345 13,16.75 L 13,17.25 C 13,17.6655 12.6655,18 12.25,18 L 11.75,18 C 11.3345,18 11,17.6655 11,17.25 L 11,16.75 C 11,16.3345 11.3345,16 11.75,16 z"
       id="rect3193"
       style="opacity:0.8;fill:url(#linearGradient2388);fill-opacity:1;fill-rule:nonzero;stroke:none;stroke-width:1;stroke-linecap:butt;stroke-linejoin:miter;marker:none;marker-start:none;marker-mid:none;marker-end:none;stroke-miterlimit:4;stroke-dasharray:none;stroke-dashoffset:0;stroke-opacity:1;visibility:visible;display:inline;overflow:visible;enable-background:accumulate" />
  </g>
</svg>
